icons/square-plus.svg

<svg xmlns="http://www.w3.org/2000/svg" width="24" height="24" viewBox="0 0 24 24">
  <path d="M20,2 C21.1045695,2 22,2.8954305 22,4 L22,20 C22,21.1045695 21.1045695,22 20,22 L4,22 C2.8954305,22 2,21.1045695 2,20 L2,4 C2,2.8954305 2.8954305,2 4,2 L20,2 Z M12,7 C11.4477153,7 11,7.44771525 11,8 L11,8 L10.999,11 L8,11 L7.88337887,11.0067277 C7.38604019,11.0644928 7,11.4871642 7,12 C7,12.5522847 7.44771525,13 8,13 L8,13 L10.999,13 L11,16 L11.0067277,16.1166211 C11.0644928,16.6139598 11.4871642,17 12,17 C12.5522847,17 13,16.5522847 13,16 L13,16 L12.999,13 L16,13 L16.1166211,12.9932723 C16.6139598,12.9355072 17,12.5128358 17,12 C17,11.4477153 16.5522847,11 16,11 L16,11 L12.999,11 L13,8 L12.9932723,7.88337887 C12.9355072,7.38604019 12.5128358,7 12,7 Z"/>
</svg>

<svg xmlns="http://www.w3.org/2000/svg" viewBox="0 0 24 24">
  <path d="M20 2a2 2 0 0 1 2 2v16a2 2 0 0 1-2 2H4a2 2 0 0 1-2-2V4c0-1.1.9-2 2-2h16zm-8 5a1 1 0 0 0-1 1v3H7.88A1 1 0 0 0 8 13h3v3.12a1 1 0 0 0 2-.12v-3h3.12a1 1 0 0 0-.12-2h-3V7.88A1 1 0 0 0 12 7z"/>
</svg>
